packages/components/src/components/icon/appstore/ic-appstore-wallet-transfer.svg

<svg width="16" height="14" viewBox="0 0 16 14" fill="none" xmlns="http://www.w3.org/2000/svg">
<path d="M11 9.29292L14.7929 5.50003L11 1.70713V3.50003C11 3.77617 10.7761 4.00003 10.5 4.00003H7.5C7.22386 4.00003 7 3.77617 7 3.50003C7 3.22388 7.22386 3.00003 7.5 3.00003H10V0.500026C10 0.0545734 10.5386 -0.16851 10.8536 0.146472L15.8536 5.14647C16.0488 5.34173 16.0488 5.65832 15.8536 5.85358L10.8536 10.8536C10.7631 10.9441 10.6381 11 10.5 11C10.2239 11 10 10.7762 10 10.5V7.00003H5.5C5.22386 7.00003 5 6.77617 5 6.50003V4.70713L1.20711 8.50003L5 12.2929V10.5C5 10.2239 5.22386 10 5.5 10H8.5C8.77614 10 9 10.2239 9 10.5C9 10.7762 8.77614 11 8.5 11H6V13.5C6 13.9455 5.46143 14.1686 5.14645 13.8536L0.146447 8.85358C-0.0488155 8.65832 -0.0488155 8.34173 0.146447 8.14647L5.14645 3.14647C5.46143 2.83149 6 3.05457 6 3.50003V6.00003H10.5C10.7761 6.00003 11 6.22388 11 6.50003V9.29292Z" fill="#333333"/>
</svg>

<svg width="16" height="14" viewBox="0 0 16 14" fill="none" xmlns="http://www.w3.org/2000/svg"><path d="M11 9.293 14.793 5.5 11 1.707V3.5a.5.5 0 0 1-.5.5h-3a.5.5 0 0 1 0-1H10V.5a.5.5 0 0 1 .854-.354l5 5a.5.5 0 0 1 0 .708l-5 5A.498.498 0 0 1 10 10.5V7H5.5a.5.5 0 0 1-.5-.5V4.707L1.207 8.5 5 12.293V10.5a.5.5 0 0 1 .5-.5h3a.5.5 0 0 1 0 1H6v2.5a.5.5 0 0 1-.854.354l-5-5a.5.5 0 0 1 0-.708l5-5A.5.5 0 0 1 6 3.5V6h4.5a.5.5 0 0 1 .5.5v2.793Z" fill="#333"/></svg>
